X: 1
T: Strathspey Decadence
C: Wouter Joubert
R: strathspey
B: Anselm Lingnau "The Strathspey Anniversary Collection" 2011-5-11
Z: 2020 John Chambers <jc:trillian.mit.edu>
S: Written for Wouter's dance by the same name.
M: C
L: 1/16
K: Gm
D2^F2 |\
"Gm"G3^F G2A2 BG3 "D7"B2c2 | "Gm"d3c de3 d4 c2B2 | "D7"A3G ^FG3 A4 A2G2 | "D"A3B A^F3 "D7"D4 D2F2 |
"Gm"G3^F G2A2 BG3 "D7"B2c2 | "Gm"d3c dg3 d4 G2A2 | "Gm"B4 B2G2 "D7"A4 A^F3 | "Gm"G3A "D7"BABA "Gm"G4 |]
B2c2 |\
"Bb"d4 df3 d4 c2B2 | "F"c3A FA3 "D"c4 B2A2 | "Gm"B3A BAGA B4 AG3 | "D"A3B A^F3 "D7"D4 A2B2 |
"D"c4 c3B cde2 dcBc | "Gm"d4 dB3 G4 B2c2 | "Gm"d3c BG3 "D"BG3 "D7"A^F3 | "Gm"AG3 "D7"G3A "Gm"G4 |]
